!!!OTL: AM BLAU UND WEISSEN BANDE
!!!ARE: Europa, Mitteleuropa, Oesterreich, Passau
!!!SCT: B0264
!!!YEM: Copyright 1995, estate of Helmut Schaffrath.
**kern
*ICvox
*Ivox
*M6/4
*k[f#]
*G:
{4d
=1
2g
4g
4f#
4e
4f#
=2
2.g
2d}
{4d
=3
2e
4e
4g
4f#
4e
=4
2.d
2r}
{8b
8cc
=5
2dd
4b
2ee
4dd
=6
2cc
8b
8cc
2a}
{4cc
=7
2b
4b
4dd
4cc
4a
=8
2.g
2r}
==
!!!AGN: Stimmungs - Lied, Sehnsucht, Treue
!!!ONB: ESAC (Essen Associative Code) Database: BOEHME
!!!AMT: compound duple
!!!AIN: vox
!!!EED: Helmut Schaffrath
!!!EEV: 1.0
*-
